cssgg/move-task.svg

<svg
  width="24"
  height="24"
  viewBox="0 0 24 24"
  fill="none"
  xmlns="http://www.w3.org/2000/svg"
>
  <path d="M18.9641 7H10.9641V9H18.9641V7Z" fill="currentColor" />
  <path d="M6 8.82864V15.1714L9.9642 12L6 8.82864Z" fill="currentColor" />
  <path d="M18.9641 11H10.9641V13H18.9641V11Z" fill="currentColor" />
  <path d="M10.9641 15H18.9641V17H10.9641V15Z" fill="currentColor" />
</svg>

<svg viewBox="0 0 24 24" xmlns="http://www.w3.org/2000/svg"><g><path d="M18.96 7h-8v2h8V7Z"/><path d="M6 8.82v6.34l3.96-3.18L5.99 8.8Z"/><path d="M18.96 11h-8v2h8v-2Z"/><path d="M10.96 15h8v2h-8v-2Z"/></g></svg>
